X:1
T:Pitty Coat Loose (sic) [3]
M:6/8
L:1/8
R:Jig
S:Gow – 1st Repository (1799)
Z:AK/Fiddler’s Companion
K:Gmin
A|B2G AFD|B2G AFD|F2F F2c|F2F F2A|
B2G AFD|B2G AFD|G2G G2d|G2G G2:|
A|B>cd cBA|BAG AFD|f>gf fcA|f>gf fcA|
B>cd cBA|BAG AFD|g>ag gdB|g>ag gdc|
B>cd cBA|BAG AFD|f>gf fcA|f>gf fcA|
Bcd cde|dcB AG^F|G2G G2d|G2G G2||

